src/assets/duotone/Wanchain.svg

<svg width="24" height="24" viewBox="0 0 24 24"  xmlns="http://www.w3.org/2000/svg">
<path opacity="0.4" d="M12 22C17.5228 22 22 17.5228 22 12C22 6.47715 17.5228 2 12 2C6.47715 2 2 6.47715 2 12C2 17.5228 6.47715 22 12 22Z" />
<path d="M16.4998 9.16086V12.9909C16.4998 13.7709 15.6498 14.2509 14.9898 13.8509L12.5198 12.3709C12.1998 12.1809 11.8098 12.1809 11.4898 12.3709L9.01978 13.8509C8.34978 14.2509 7.50977 13.7709 7.50977 12.9909V9.16086C7.50977 8.82086 7.68977 8.50086 7.96977 8.32086L11.4698 6.10086C11.7998 5.89086 12.2098 5.89086 12.5398 6.10086L16.0398 8.32086C16.3198 8.50086 16.4998 8.82086 16.4998 9.16086Z" />
<path d="M11.9999 18.0616C11.8499 18.0616 11.7099 18.0216 11.5799 17.9316L9.32995 16.4316C8.98995 16.2016 8.88994 15.7316 9.11994 15.3916C9.34994 15.0416 9.81995 14.9516 10.1599 15.1816L11.99 16.4016L13.82 15.1816C14.16 14.9516 14.6299 15.0416 14.8599 15.3916C15.0899 15.7316 14.9999 16.2016 14.6499 16.4316L12.3999 17.9316C12.2899 18.0216 12.1499 18.0616 11.9999 18.0616Z" />
</svg>

<?xml version="1.0" encoding="UTF-8"?>
<svg width="24" height="24" viewBox="0 0 24 24" xmlns="http://www.w3.org/2000/svg">
 <path d="m12 22c5.5228 0 10-4.4772 10-10 0-5.5228-4.4772-10-10-10-5.5228 0-10 4.4772-10 10 0 5.5228 4.4772 10 10 10z" opacity=".4"/>
 <path d="m16.5 9.1609v3.83c0 0.78-0.85 1.26-1.51 0.86l-2.47-1.48c-0.32-0.19-0.71-0.19-1.03 0l-2.47 1.48c-0.67 0.4-1.51-0.08-1.51-0.86v-3.83c0-0.34 0.18-0.66 0.46-0.84l3.5-2.22c0.33-0.21 0.74-0.21 1.07 0l3.5 2.22c0.28 0.18 0.46 0.5 0.46 0.84z"/>
 <path d="m12 18.062c-0.15 0-0.29-0.04-0.42-0.13l-2.25-1.5c-0.34-0.23-0.44001-0.7-0.21001-1.04 0.23-0.35 0.70001-0.44 1.04-0.21l1.8301 1.22 1.83-1.22c0.34-0.23 0.8099-0.14 1.0399 0.21 0.23 0.34 0.14 0.81-0.21 1.04l-2.25 1.5c-0.11 0.09-0.25 0.13-0.4 0.13z"/>
</svg>
